assets/img/braze_icons/lock-unlocked-03.svg

<svg fill="none" height="24" viewBox="0 0 24 24" width="24" xmlns="http://www.w3.org/2000/svg"><path d="m6 8c0-3.31371 2.68629-6 6-6 2.9039 0 5.324 2.06196 5.88 4.80107.1099.54124-.2398 1.06908-.7811 1.17894-.5412.10987-1.0691-.23983-1.1789-.78108-.3706-1.82537-1.986-3.19893-3.92-3.19893-2.20914 0-4 1.79086-4 4v2.0016c.23771-.00161.49039-.0016.75869-.0016h6.48261c.805-.00001 1.4693-.00002 2.0105.0442.5621.0459 1.0788.1445 1.5642.3918.7526.3835 1.3645.9954 1.748 1.748.2473.4854.3459 1.0021.3918 1.5642.0442.5412.0442 1.2055.0442 2.0105v.4826c0 .805 0 1.4693-.0442 2.0105-.0459.5621-.1445 1.0788-.3918 1.5642-.3835.7526-.9954 1.3645-1.748 1.748-.4854.2473-1.0021.3459-1.5642.3918-.5412.0442-1.2055.0442-2.0105.0442h-6.48257c-.80499 0-1.46935 0-2.01055-.0442-.5621-.0459-1.07881-.1445-1.56414-.3918-.75265-.3835-1.36457-.9954-1.74806-1.748-.2473-.4854-.34586-1.0021-.39179-1.5642-.04421-.5412-.0442-1.2055-.04419-2.0105v-.4826c-.00001-.805-.00002-1.4693.04419-2.0105.04593-.5621.14449-1.0788.39179-1.5642.38349-.7526.99541-1.3645 1.74806-1.748.2621-.1336.53335-.2237.81596-.2857z" fill="#801ed7"/></svg>

<svg width="24" height="24" viewBox="0 0 24 24" fill="none" xmlns="http://www.w3.org/2000/svg">
<path d="M6 8C6 4.68629 8.68629 2 12 2C14.9039 2 17.324 4.06196 17.88 6.80107C17.9899 7.34231 17.6402 7.87015 17.0989 7.98001C16.5577 8.08988 16.0298 7.74018 15.92 7.19893C15.5494 5.37356 13.934 4 12 4C9.79086 4 8 5.79086 8 8V10.0016C8.23771 9.99999 8.49039 10 8.75869 10H15.2413C16.0463 9.99999 16.7106 9.99998 17.2518 10.0442C17.8139 10.0901 18.3306 10.1887 18.816 10.436C19.5686 10.8195 20.1805 11.4314 20.564 12.184C20.8113 12.6694 20.9099 13.1861 20.9558 13.7482C21 14.2894 21 14.9537 21 15.7587V16.2413C21 17.0463 21 17.7106 20.9558 18.2518C20.9099 18.8139 20.8113 19.3306 20.564 19.816C20.1805 20.5686 19.5686 21.1805 18.816 21.564C18.3306 21.8113 17.8139 21.9099 17.2518 21.9558C16.7106 22 16.0463 22 15.2413 22H8.75873C7.95374 22 7.28938 22 6.74818 21.9558C6.18608 21.9099 5.66937 21.8113 5.18404 21.564C4.43139 21.1805 3.81947 20.5686 3.43598 19.816C3.18868 19.3306 3.09012 18.8139 3.04419 18.2518C2.99998 17.7106 2.99999 17.0463 3 16.2413V15.7587C2.99999 14.9537 2.99998 14.2894 3.04419 13.7482C3.09012 13.1861 3.18868 12.6694 3.43598 12.184C3.81947 11.4314 4.43139 10.8195 5.18404 10.436C5.44614 10.3024 5.71739 10.2123 6 10.1503V8Z" fill="#801ED7"/>
</svg>
